!!!OTL: 450a. Brauns Maegdelein.
!!!ARE: Europa, Mitteleuropa, Deutschland
!!!SCT: E0450
!!!TXL: @@DE
!!!YEM: Copyright 1995, estate of Helmut Schaffrath.
**kern	**text
*ICvox	*
*M4/4	*
*met(c)	*
*k[b-]	*
*F:	*
!LO:TX:a:t=Forſter III, 1549. M. Newſidler, 1574. Winnenberg, 1582.	!
{4f	Mir
=1	=1
4f	iſt
4f	ein
4g	schönsbraun
4a	.
=2	=2
4.b-/	Mei-
8a	-de-
4g}	-lein
{4b-/	ge-
=3	=3
4a	-falln
4f	in
4g	mei-
4g	-nen
=4	=4
2f	Sinn.
4r}	.
{4f	Wollt
=5	=5
4f	Gott,
4f	ich
4g	ſollt
4a	heint
=6	=6
4.b-/	bei
8a	ihr
4g}	ſein,
{4b-/	mein
=7	=7
4a	Trau-
4f	-ren
4g	führ
4g	da-
=8	=8
2f	-hin.
4r}	.
{4f	Kein
=9	=9
4g	Tag
4a	und
4b-/	Nacht
4g	hab
=10	=10
4a	ich
4b-	kein
4cc}	Ruh,
{4cc	das
=11	=11
4dd	ſchafft
4cc	ihr
4cc	ſchön
4b-	Ge-
=12	=12
2cc;	-ſtalt.
4r}	.
{4cc	weiß
=13	=13
4cc	nit,
4cc	wie
4a	ich
4cc	ihm
=14	=14
4.b-/	für-
8a	-baß
4g}	thu,
{4b-	mein
=15	=15
4a	feins
4f	Lieb
4g	macht
4g	mich
=16	=16
!LO:N:vis=1	!
2.f;}	alt.
==	==
!!!AGN: Liebes - Lied
!!!ONB: ESAC (Essen Associative Code) Database: ERK1
!!!AMT: simple quadruple
!!!AIN: vox
!!!EED: Helmut Schaffrath
!!!EEV: 1.0
!!!GTL: Liebeslieder [Alte (aus dem 13. bis 17. Jahrh.) mit ihrem jungen Nachwuchs]
!!!URL-scan: https://rosdok.uni-rostock.de/mcrviewer/recordIdentifier/rosdok_ppn745177662/iview2/phys_0274.iview2?x=-778.7160746633431&y=1832.6752866660245&scale=0.3980252647138593&rotation=0&layout=singlePageLayout
!!!ENC: Anna Maria Matuszewska
!!!EEV: 2024/10/12
*-	*-
